X:1
T:Title
%%score { 1 | ( 2 3 ) }
L:1/8
Q:1/4=116
M:3/4
K:Eb
V:1 treble nm="Grand Piano"
V:2 bass 
V:3 bass 
V:1
 [GB]2 =A2 B2 | [EG]2 B2 B2 | [ce]2 d2 c2 | [GB]6 | [FA]2 G2 A2 | [DF]2 A2 A2 | [Ac]2 [GB]2 [FA]2 | %7
w: Will~H.~Ruebush * *|||||||
 [EG]6 | [GB]2 =A2 B2 | [EG]2 B2 B2 | [ce]2 d2 c2 | [GB]6 | [DB]2 =A2 B2 | [Ec]2 d2 c2 | [B,DB]6- | %15
w: ||||||||
 [B,DB]4 z2 | [DB]2 [E=A]2 [F_A]2 | [B,EG]2 [EG]4 | [=Ec]2 [F=B]2 [G_B]2 | [CFA]2 A4 | d2 c2 d2 | %21
w: ||||||
 e6 | e2 d2 c2 | B2 [EG]2 [EA]2 | [EG]2 [DG]2 F2 | E6 |] %26
w: |||||
V:2
 z2[K:treble] _G2 =G2 | z2[K:treble] G2 G2 | z2[K:treble] B2 A2 | [E,,E,]6 | z2[K:treble] =E2 F2 | %5
 z2[K:treble] F2 F2 | B,,2 C,2 D,2 | E,6 | z2[K:treble] _G2 =G2 | z2[K:treble] G2 G2 | %10
 z2[K:treble] B2 A2 | [E,,E,]6 | z2 C2 D2 | z2[K:treble] F2 E2 | B,,6- | B,,4 z2 | B,,2 C,2 D,2 | %17
 z2 B,4 | C,2 D,2 =E,2 | z2[K:treble] [CF]4 | [B,FA]2 [B,EA]2 [B,FA]2 | [CEG]6 | %22
 [=A,C_G]2 [A,DG]2 [A,EG]2 | [B,EG]2[K:bass] [C,B,]2 [=B,,F,]2 | [B,,B,]2 [B,,B,]2 [B,,A,B,]2 | %25
 [E,G,B,]6 |] %26
V:3
 [E,,E,]6[K:treble] | [E,,E,]6[K:treble] | [A,,A,]6[K:treble] | x6 | [B,,B,]6[K:treble] | %5
 [B,,B,]6[K:treble] | x6 | x6 | [E,,E,]6[K:treble] | [E,,E,]6[K:treble] | [A,,A,]6[K:treble] | x6 | %12
 [F,,F,]6 | [F,,F,]6[K:treble] | x6 | x6 | x6 | E,6 | x6 | F,6[K:treble] | x6 | x6 | x6 | %23
 x2[K:bass] x4 | x6 | x6 |] %26

